assets/hero-background-logo.svg

<svg height="729" viewBox="0 0 689 729" width="689" xmlns="http://www.w3.org/2000/svg"><g fill="none" fill-rule="evenodd" stroke="#fff" stroke-width="1.4"><path d="m593.474842 153.312198-20.204913 20.204914c45.947988 50.349973 74.013788 117.282247 74.013788 190.652389 0 73.371542-28.0658 140.306615-74.013788 190.656588l20.203514 20.203514c51.113954-55.541125 82.396589-129.606685 82.396589-210.860102 0-81.253416-31.279837-155.317577-82.39519-210.857303z"/><path d="m173.516552 155.074251c50.348574-45.947988 117.282248-74.0137886 190.65239-74.0137886 73.37294 0 140.306614 28.0671996 190.657986 74.0137886l20.204914-20.204913c-55.542524-51.1153535-129.608085-82.3951904-210.8629-82.3951904-81.253417 0-155.316179 31.2784376-210.855904 82.3937904z"/><path d="m155.075231 554.825529c-45.949388-50.348574-74.0137892-117.283647-74.0137892-190.656587 0-73.370142 28.0644012-140.302417 74.0137892-190.65239l-20.206313-20.206313c-51.1153533 55.541125-82.3937909 129.603887-82.3937909 210.858703 0 81.254815 31.2798368 155.320376 82.3951899 210.861501z"/><path d="m554.826508 573.268389c-50.349973 45.949388-117.283646 74.015189-190.657986 74.015189-73.368743 0-140.302417-28.065801-190.65239-74.015189l-20.203514 20.206313c55.539725 51.115353 129.602487 82.39519 210.855904 82.39519 81.254816 0 155.320376-31.281236 210.860102-82.397988z"/><path d="m424.655513 313.300133c-.033582 39.7312-62.398762 35.060563-82.253868 35.052167l.041977-70.22047c19.857904.008395 82.23148-6.272758 82.211891 35.168303zm16.295459 109.243659c-.005597 43.671437-74.784766 38.663585-98.622087 38.67198l.05457-77.423717c23.842918.01819 98.595501-6.797471 98.567517 38.751737zm49.280959-124.924855c-3.980815-41.656543-39.934088-55.639071-85.332178-59.640875l.032182-57.779896-35.172501-.013992-.030783 56.256132c-9.244727-.004198-18.69794.174904-28.088188.356804l.039178-56.628328-35.15431-.019589-.046175 57.763105c-7.614622.149718-15.093518.288242-22.384918.289641l-.005597-.180501-48.512781-.041977-.012593 37.560991s25.975348-.481336 25.542985-.004198c14.248382.012593 18.878441 8.284854 20.223103 15.422338l-.03498 65.822683.001399.249064-.062966 92.209405c-.628255 4.48314-3.268606 11.630418-13.221345 11.643011.449154.397382-25.568171-.020988-25.568171-.020988l-7.012952 41.997955 45.773085.022388c8.517126.013992 16.899927.16371 25.126013.21968l-.019589 58.436136 35.134721.023787.032183-57.819075c9.365061.195893 18.730123.289641 28.097983.282645l-.048974 57.553221 35.171102.013992.047574-58.332593c59.132954-3.360956 100.530639-18.234795 105.702202-73.75633 4.175309-44.70687-16.848156-64.666918-50.410141-72.744685 20.398008-10.37111 33.159006-28.657676 30.195432-59.139951z"/><path d="m364.168802 29.2860708c-184.652482 0-334.8824513 150.2299692-334.8824513 334.8824512 0 184.658079 150.2299693 334.888048 334.8824513 334.888048 184.659478 0 334.889447-150.229969 334.889447-334.888048 0-184.652482-150.229969-334.8824512-334.889447-334.8824512zm0 698.3582132c-200.42043 0-363.47016534-163.053933-363.47016534-363.475762 0-200.42043 163.04973534-363.46876595 363.47016534-363.46876595s363.477161 163.04833595 363.477161 363.46876595c0 200.421829-163.056731 363.475762-363.477161 363.475762z"/></g></svg>

<?xml version="1.0" encoding="UTF-8"?>
<svg width="689px" height="729px" viewBox="0 0 689 729" version="1.1" xmlns="http://www.w3.org/2000/svg" xmlns:xlink="http://www.w3.org/1999/xlink">
    <!-- Generator: Sketch 52.2 (67145) - http://www.bohemiancoding.com/sketch -->
    <title>WBTC  Logo Background</title>
    <desc>Created with Sketch.</desc>
    <g id="Designs" stroke="none" stroke-width="1" fill="none" fill-rule="evenodd">
        <g id="Home" transform="translate(-751.000000, -197.000000)" stroke="#FFFFFF" stroke-width="1.4">
            <g id="HERO">
                <g id="WBTC--Logo-Background" transform="translate(751.000000, 197.000000)">
                    <path d="M593.474842,153.312198 L573.269929,173.517112 C619.217917,223.867085 647.283717,290.799359 647.283717,364.169501 C647.283717,437.541043 619.217917,504.476116 573.269929,554.826089 L593.473443,575.029603 C644.587397,519.488478 675.870032,445.422918 675.870032,364.169501 C675.870032,282.916085 644.590195,208.851924 593.474842,153.312198 Z" id="Stroke-1" style="mix-blend-mode: overlay;"></path>
                    <path d="M173.516552,155.074251 C223.865126,109.126263 290.7988,81.0604624 364.168942,81.0604624 C437.541882,81.0604624 504.475556,109.127662 554.826928,155.074251 L575.031842,134.869338 C519.489318,83.7539845 445.423757,52.4741476 364.168942,52.4741476 C282.915525,52.4741476 208.852763,83.7525852 153.313038,134.867938 L173.516552,155.074251 Z" id="Stroke-3" style="mix-blend-mode: overlay;"></path>
                    <path d="M155.075231,554.825529 C109.125843,504.476955 81.0614418,437.541882 81.0614418,364.168942 C81.0614418,290.7988 109.125843,223.866525 155.075231,173.516552 L134.868918,153.310239 C83.7535647,208.851364 52.4751271,282.914126 52.4751271,364.168942 C52.4751271,445.423757 83.7549639,519.489318 134.870317,575.030443 L155.075231,554.825529 Z" id="Stroke-5" style="mix-blend-mode: overlay;"></path>
                    <path d="M554.826508,573.268389 C504.476535,619.217777 437.542862,647.283578 364.168522,647.283578 C290.799779,647.283578 223.866105,619.217777 173.516132,573.268389 L153.312618,593.474702 C208.852343,644.590055 282.915105,675.869892 364.168522,675.869892 C445.423338,675.869892 519.488898,644.588656 575.028624,593.471904 L554.826508,573.268389 Z" id="Stroke-7" style="mix-blend-mode: overlay;"></path>
                    <path d="M424.655513,313.300133 C424.621931,353.031333 362.256751,348.360696 342.401645,348.3523 L342.443622,278.13183 C362.301526,278.140225 424.675102,271.859072 424.655513,313.300133 Z M440.950972,422.543792 C440.945375,466.215229 366.166206,461.207377 342.328885,461.215772 L342.383455,383.792055 C366.226373,383.810245 440.978956,376.994584 440.950972,422.543792 Z M490.231931,297.618937 C486.251116,255.962394 450.297843,241.979866 404.899753,237.978062 L404.931935,180.198166 L369.759434,180.184174 L369.728651,236.440306 C360.483924,236.436108 351.030711,236.61521 341.640463,236.79711 L341.679641,180.168782 L306.525331,180.149193 L306.479156,237.912298 C298.864534,238.062016 291.385638,238.20054 284.094238,238.201939 L284.088641,238.021438 L235.57586,237.979461 L235.563267,275.540452 C235.563267,275.540452 261.538615,275.059116 261.106252,275.536254 C275.354634,275.548847 279.984693,283.821108 281.329355,290.958592 L281.294375,356.781275 L281.295774,357.030339 L281.232808,449.239744 C280.604553,453.722884 277.964202,460.870162 268.011463,460.882755 C268.460617,461.280137 242.443292,460.861767 242.443292,460.861767 L235.43034,502.859722 L281.203425,502.88211 C289.720551,502.896102 298.103352,503.04582 306.329438,503.10179 L306.309849,561.537926 L341.44457,561.561713 L341.476753,503.742638 C350.841814,503.938531 360.206876,504.032279 369.574736,504.025283 L369.525762,561.578504 L404.696864,561.592496 L404.744438,503.259903 C463.877392,499.898947 505.275077,485.025108 510.44664,429.503573 C514.621949,384.796703 493.598484,364.836655 460.036499,356.758888 C480.434507,346.387778 493.195505,328.101212 490.231931,297.618937 Z" id="Stroke-9" style="mix-blend-mode: overlay;"></path>
                    <path d="M364.168802,29.2860708 C179.51632,29.2860708 29.2863507,179.51604 29.2863507,364.168522 C29.2863507,548.826601 179.51632,699.05657 364.168802,699.05657 C548.82828,699.05657 699.058249,548.826601 699.058249,364.168522 C699.058249,179.51604 548.82828,29.2860708 364.168802,29.2860708 Z M364.168802,727.644284 C163.748372,727.644284 0.69863666,564.590351 0.69863666,364.168522 C0.69863666,163.748092 163.748372,0.699756046 364.168802,0.699756046 C564.589232,0.699756046 727.645963,163.748092 727.645963,364.168522 C727.645963,564.590351 564.589232,727.644284 364.168802,727.644284 Z" id="Stroke-11" style="mix-blend-mode: overlay;"></path>
                </g>
            </g>
        </g>
    </g>
</svg>
